X: 27995
T: Moving Bog, The
R: polka
M: 2/4
K: Gmajor
|:fa/f/ df|e/f/e/d/ BA|B>A GE|B/c/B/A/ GE|
fa/f/ df|e/f/e/d/ BA|B>A G/A/f/g/|ag g2:|
|:B>A GB|de/f/ gB|A3 B|de/d/ BA|
B>A GB|de/f/ gB|AG/A/ BA|1 G3 A:|2 G2 G2||

